X:1
T:Title
%%score { ( 1 3 5 ) | ( 2 4 ) }
L:1/8
M:4/4
K:C
V:1 treble nm="Grand Piano"
V:3 treble 
V:5 treble 
V:2 bass 
V:4 bass 
V:1
 z4 z2[Q:1/4=112] [EG]2 | [EG]3 [EG] [_EA]2 [Ec]2 | [EG]4 [CE]2 [CF]2 | [B,G]3 [CG] [DG]2 A2 | %4
 G6 z2 | A3 A B2 c2 |[M:3/4] [Ec]4 G2 |[M:1/4] G2 |[M:4/4] [GB]3 [GB] [^FA]2 d2 | d6 z2 | %10
 [DB]3 [Ec] [CA]3 [B,G] |[M:9/8] G8- G |[M:6/4] z2 G,2 G,2 D2 E3 D | C6 G6 | z2 C2 C2 c2 F3 c | %15
 E12[K:bass] | z2 C2[K:treble] C2 A2 G3 F | E6 c6 | B6 z6 | [B,B]12 | z2 G,2 G,2 D2 E3 D | C6 G6 | %22
 z2 C2 C2 c2 F3 c | E12 | [Dd]6[K:bass][K:treble] z2 [B,B]4 | G6 c6 | [Ee]6 z2 [Cc]4 | d6 c6 | %28
 z6 .c6 | A6 .G6 |[M:13/8] [^FA]-[FA]-[FA]- [FA]3 B2 e3 d2 |[M:5/4] c2- c2- c6 |] %32
V:2
 z4 z2 [C,G,]2 | [C,G,]3 [D,G,] [C,^F,]2 [C,F,]2 | [C,G,]4 [C,G,]2 [A,,F,]2 | %3
 [G,,D,]3 [G,,E,] [G,,F,]2 [F,B,D]2 | [E,C]2 [D,B,]2 [C,C]2 [C,C]2 | %5
 [F,CF]3 [F,CF] [F,A,F]2 [F,A,F]2 |[M:3/4] [C,G,]4 [E,C]2 |[M:1/4] [_E,^C]2 | %8
[M:4/4] [D,D]3 [D,D] [D,D]2[K:treble] [CD^F]2 | [B,DG]2[K:bass] [A,C]2 [G,B,]2 [C,G,]2 | %10
 [D,G,]3 [D,G,] [D,^F,]3 [G,,G,] |[M:9/8] z2 B,- B,6 | %12
[M:6/4] C,2 E,2 E,2 G,,2- [G,,-E,G,B,]3 [G,,D,G,B,] | C,2 E,2 E,2 z2 _B,2 B,2 | %14
 z2 A,2 A,2[K:treble] C2 [A,C]3 [^G,CF] | G,2 [G,,G,]2 [A,,G,]2 z2 [C,G,]2 [E,G,]2 | %16
 z2 A,2 A,2 F,2 E,3 [D,B,] | z2 G,2 G,2 z2 E2 E2 | z2 E2 E2 z2 ^G,3 A, | %19
 z2[K:treble] E2 E2 z2 F2[K:bass] G,,2 | C,2 E,2 E,2 G,,2- [G,,-E,G,B,]3 [G,,D,G,B,] | z6 G,6 | %22
 z2 A,2 A,2[K:treble] C2 [A,C]3 [^G,CF] | G,2 G,,2 A,,2 B,,2 C,2 E,2 | z6 z4 D,2 | %25
 z2 [G,,G,]2 [A,,A,]2 [B,,B,]2 [C,C]2 [D,D]2 | z6 z4 E,2 | [A,,A,]2 [E,,E,]2 [C,,C,]2 z2 E2 E2 | %28
 [D,A,]6 A,2 C3 [D,CD] | [G,CE]6 .[G,CE]6 |[M:13/8] z z z z z2[K:treble] .D3 z z z2 | %31
[M:5/4][K:bass] G,2 z2 z2 z4 |] %32
V:3
 x8 | x8 | x8 | x8 | z2 F2 E2 [EG]2 | x8 |[M:3/4] x6 |[M:1/4] x2 |[M:4/4] x8 | z2 ^F2 =F2 [Ec]2 | %10
 x8 |[M:9/8] B,2 D- D E2 F3 |[M:6/4] C6 z6 | z2 G,2 G,2 z2 C2 C2 | F6 z6 | %15
 z2 C2 C2[K:bass] B,,2 C2 C2 | D6[K:treble] B,6 | z2 C2 C2 z2 A2 A2 | %18
 z2 ^G2 G2 [A,A]2 [B,_EG]3 [B,EA] | z2 ^G2 G2 z2 =G2 [G,B,FG]2 | C6 z6 | z2 G,2 G,2 z2 C2 C2 | %22
 F6 z6 | z2 [G,C]2 [G,C]2 z2 [G,C]2 [G,C]2 | z2[K:bass] [^F,C]2 [F,C]2[K:treble] .[Cc]4 z A | %25
 z2 [CE]2 [CE]2 z2 [EG]2 [EG]2 | z2 [^G,D]2 [G,D]2 .[Dd]4 z B | z2 [EA]2 [EA]2 z2 A2 A2 | %28
 [^Fd]6 F2- [FA-]2 AF | x12 |[M:13/8] x13 |[M:5/4] E2 F2 F2 E4 |] %32
V:4
 x8 | x8 | x8 | x8 | x8 | x8 |[M:3/4] x6 |[M:1/4] x2 |[M:4/4] x6[K:treble] x2 | x2[K:bass] x6 | %10
 x8 |[M:9/8] [G,,G,]2 F,- F, E,2 D,3 |[M:6/4] z6 .D,6 | z6 [E,G,]6 | F,6[K:treble] z6 | x12 | %16
 [^F,,D,]6 G,,6 | C,6 [A,,A,]6 | [B,,B,]6 .B,,6 | E,6[K:treble] z6[K:bass] | z6 .D,6 | %21
 C,2 E,2 E,2 z2 _B,2 B,2 | F,6[K:treble] z6 | x12 | D,,2 D,2 D,2 D,,2 .[D,^F,]3 A, | x12 | %26
 E,,2 E,2 E,2 E,,2 .[E,^G,]3 B, | z6 [A,,,A,,]6 | z6 D,6 | x12 | %30
[M:13/8] [D,D]-[D,D]-[D,D]- [D,D]3[K:treble] [G,G]2- [G,B,G]3 [G,B,F]2 | %31
[M:5/4][K:bass] C,2- [C,-A,]2 [C,-A,]2 [C,G,]4 |] %32
V:5
 x8 | x8 | x8 | x8 | x8 | x8 |[M:3/4] x6 |[M:1/4] x2 |[M:4/4] x8 | x8 | x8 |[M:9/8] x9 | %12
[M:6/4] x12 | x12 | x12 | x6[K:bass] x6 | x4[K:treble] x8 | x12 | x12 | z6 .D,6 | x12 | x12 | x12 | %23
 x12 | z6[K:bass][K:treble] z4 ^F,2 | x12 | z6 z4 ^G,2 | x12 | x12 | x12 |[M:13/8] x13 | %31
[M:5/4] x10 |] %32

